packages/icons/svg/Outline/settings-2.svg

<svg width="24" height="24" viewBox="0 0 24 24" fill="none" xmlns="http://www.w3.org/2000/svg">
<g id="Icon/Outline/settings-2">
<path id="Mask" fill-rule="evenodd" clip-rule="evenodd" d="M11.3745 20H12.6255V19.233C12.6255 18.298 13.2005 17.458 14.0895 17.091C15.0095 16.708 16.0145 16.896 16.6765 17.562L17.2155 18.103L18.1035 17.215L17.5585 16.671C16.8955 16.009 16.7085 15.005 17.0815 14.114C17.0815 14.114 17.0825 14.113 17.0825 14.112L17.0935 14.084C17.4575 13.201 18.2985 12.625 19.2335 12.625H19.9995V11.375H19.2335C18.2985 11.375 17.4575 10.8 17.0915 9.911C16.7065 8.991 16.8955 7.986 17.5615 7.323L18.1025 6.784L17.2155 5.897L16.6705 6.442C16.0085 7.104 15.0055 7.291 14.1145 6.919C13.2015 6.542 12.6255 5.702 12.6255 4.767V4H11.3745V4.767C11.3745 5.702 10.7995 6.542 9.91051 6.909C8.99151 7.294 7.98651 7.105 7.32351 6.438L6.78451 5.897L5.89651 6.785L6.44151 7.329C7.10351 7.991 7.29151 8.995 6.91851 9.886C6.54251 10.799 5.70151 11.375 4.76651 11.375H3.99951V12.625H4.76651C5.70151 12.625 6.54251 13.2 6.90851 14.089C7.29351 15.009 7.10451 16.014 6.43851 16.677L5.89751 17.216L6.78451 18.103L7.32951 17.558C7.99151 16.896 8.99451 16.709 9.88551 17.081C10.7985 17.458 11.3745 18.298 11.3745 19.233V20ZM12.9425 22H11.0505C10.1265 22 9.37451 21.248 9.37451 20.324V19.233C9.37451 19.086 9.25751 18.985 9.14751 18.94C9.00351 18.881 8.84951 18.869 8.74351 18.972L7.97351 19.743C7.31751 20.397 6.25151 20.399 5.59651 19.743L4.25651 18.403C3.93851 18.085 3.76451 17.663 3.76451 17.213C3.76551 16.764 3.94051 16.342 4.25951 16.024L5.02751 15.259C5.13251 15.154 5.12151 15 5.07451 14.889C5.01451 14.742 4.91451 14.625 4.76651 14.625H3.68251C2.75451 14.625 1.99951 13.871 1.99951 12.943V11.051C1.99951 10.126 2.75151 9.375 3.67651 9.375H4.76651C4.91351 9.375 5.01451 9.257 5.05951 9.147C5.11951 9.003 5.13151 8.848 5.02751 8.744L4.25651 7.974C3.60251 7.317 3.60251 6.251 4.25651 5.597L5.59651 4.257C5.91451 3.939 6.33551 3.765 6.78451 3.765H6.78651C7.23551 3.765 7.65851 3.94 7.97551 4.259L8.74051 5.028C8.84551 5.134 9.00051 5.122 9.11151 5.075C9.25751 5.014 9.37451 4.914 9.37451 4.767V3.683C9.37451 2.755 10.1295 2 11.0575 2H12.9495C13.8735 2 14.6255 2.752 14.6255 3.676V4.767C14.6255 4.914 14.7425 5.015 14.8525 5.06C14.9975 5.12 15.1515 5.133 15.2565 5.028L16.0265 4.257C16.6825 3.603 17.7485 3.601 18.4035 4.257L19.7445 5.598C20.0625 5.915 20.2365 6.337 20.2355 6.787C20.2355 7.235 20.0605 7.658 19.7415 7.975L18.9725 8.741C18.8675 8.846 18.8785 9 18.9255 9.111C18.9855 9.258 19.0855 9.375 19.2335 9.375H20.3175C21.2455 9.375 21.9995 10.129 21.9995 11.057V12.949C21.9995 13.874 21.2485 14.625 20.3235 14.625H19.2335C19.0865 14.625 18.9855 14.743 18.9405 14.853C18.9395 14.854 18.9275 14.884 18.9265 14.886C18.8805 14.997 18.8685 15.152 18.9725 15.256L19.7435 16.026C20.3975 16.683 20.3975 17.749 19.7435 18.403L18.4035 19.743C18.0855 20.061 17.6645 20.235 17.2155 20.235H17.2135C16.7645 20.235 16.3415 20.06 16.0245 19.741L15.2595 18.972C15.1545 18.867 14.9985 18.879 14.8885 18.925C14.7425 18.986 14.6255 19.086 14.6255 19.233V20.317C14.6255 21.245 13.8705 22 12.9425 22ZM12 10.5C11.173 10.5 10.5 11.173 10.5 12C10.5 12.827 11.173 13.5 12 13.5C12.827 13.5 13.5 12.827 13.5 12C13.5 11.173 12.827 10.5 12 10.5ZM12 15.5C10.07 15.5 8.50001 13.93 8.50001 12C8.50001 10.07 10.07 8.5 12 8.5C13.93 8.5 15.5 10.07 15.5 12C15.5 13.93 13.93 15.5 12 15.5Z" fill="#000000"/>
</g>
</svg>

<svg fill="none" height="24" viewBox="0 0 24 24" width="24" xmlns="http://www.w3.org/2000/svg"><path clip-rule="evenodd" d="m11.3745 20.0001h1.251v-.767c0-.935.575-1.775 1.464-2.142.92-.383 1.925-.195 2.587.471l.539.541.888-.888-.545-.544c-.663-.662-.85-1.666-.477-2.557 0 0 .001-.001.001-.002l.011-.028c.364-.883 1.205-1.459 2.14-1.459h.766v-1.25h-.766c-.935 0-1.776-.575-2.142-1.46404-.385-.92-.196-1.925.47-2.588l.541-.539-.887-.887-.545.545c-.662.662-1.665.849-2.556.477-.913-.377-1.489-1.217-1.489-2.152v-.76699h-1.251v.76699c0 .935-.575 1.775-1.46397 2.142-.919.385-1.924.196-2.587-.471l-.539-.541-.888.888.545.544c.662.662.85 1.666.477 2.557-.376.91304-1.217 1.48904-2.152 1.48904h-.767v1.25h.767c.935 0 1.776.575 2.142 1.464.385.92.196 1.925-.47 2.588l-.541.539.887.887.545-.545c.662-.662 1.665-.849 2.556-.477.91297.377 1.48897 1.217 1.48897 2.152zm1.568 1.9999h-1.892c-.924 0-1.67599-.752-1.67599-1.676v-1.091c0-.147-.117-.248-.227-.293-.144-.059-.298-.071-.404.032l-.77.771c-.656.654-1.722.656-2.377 0l-1.34-1.34c-.318-.318-.492-.74-.492-1.19.001-.449.176-.871.495-1.189l.768-.765c.105-.105.094-.259.047-.37-.06-.147-.16-.264-.308-.264h-1.084c-.928 0-1.683-.754-1.683-1.682v-1.892c0-.925.752-1.676 1.677-1.676h1.09c.147 0 .248-.118.293-.228.06-.144.072-.299-.032-.403l-.771-.77c-.654-.657-.654-1.723 0-2.377l1.34-1.34c.318-.318.739-.492 1.188-.492h.002c.449 0 .872.175 1.189.494l.765.769c.105.106.26.094.371.047.146-.061.263-.161.263-.308v-1.084c0-.928.75499-1.683 1.68299-1.683h1.892c.924 0 1.676.752 1.676 1.676v1.091c0 .147.117.248.227.293.145.06.299.073.404-.032l.77-.771c.656-.654 1.722-.656 2.377 0l1.341 1.341c.318.317.492.739.491 1.189 0 .448-.175.871-.494 1.188l-.769.766c-.105.105-.094.259-.047.37.06.147.16.264.308.264h1.084c.928 0 1.682.754 1.682 1.682v1.892c0 .925-.751 1.676-1.676 1.676h-1.09c-.147 0-.248.118-.293.228-.001.001-.013.031-.014.033-.046.111-.058.266.046.37l.771.77c.654.657.654 1.723 0 2.377l-1.34 1.34c-.318.318-.739.492-1.188.492h-.002c-.449 0-.872-.175-1.189-.494l-.765-.769c-.105-.105-.261-.093-.371-.047-.146.061-.263.161-.263.308v1.084c0 .928-.755 1.683-1.683 1.683zm-.9425-11.5001c-.827 0-1.5.673-1.5 1.5s.673 1.5 1.5 1.5 1.5-.673 1.5-1.5-.673-1.5-1.5-1.5zm0 5.0002c-1.93 0-3.5-1.57-3.5-3.5s1.57-3.50003 3.5-3.50003 3.5 1.57003 3.5 3.50003-1.57 3.5-3.5 3.5z" fill="#6b7280" fill-rule="evenodd"/></svg>
